X: 36548
T: Setting Sun, The
R: reel
M: 4/4
K: Dmajor
|:(DE)|F3 A ^G2 e2|(dc)BA (d3 F)|G3 A/B/ (A2 F2)|(dA)GF E2 DE|
F3 A ^G2 e2|(dc)BA (d3 F)|G3 e/d/ c2 A2|d6:|
|:(de)|(f3 A) (g3 f)|e2 cB (A2 d2)B3 A/G/ (A2 F2)|
[1 (dA)GF E2 de|(f3 A) (g3 f)|e2 cB a2 f2|B3 (g/e/) c2 A2|d6:|
[2 (dA)GF E2 DE|F3 A ^G2 e2|(dc)BA (d3 F)|G3 e/d/ c2 A2|d6||

